X: 1
T:Bourr\'ee
T:from Suite BWV 996
C:Johann Sebastian Bach
O:Germany
R:Bourr\'ee
Z:Transcribed by Bryan Creer

M:4/4
L:1/8
K:Em
ef|g2fe ^d2ef|B2^c^d e2=d=c|B2AG F2GA|BAGF E2ef|
g2fe ^d2ef|B2^c^d e2=d=c|B2AG F3G|[D6G6]:|
|:BG|d2Ac B2gd|e2Bd c2BA|^G2AB c2BA|
A6dA|B2gd e2Bd|c2ae f2^ce|d2^cB ^A3B|
B6bf|^g2fe a2e=g|f2ed g2d=f|e2ae f2^ce|
^d2B4eB|c2dA B2cG|A2BF G2FE|^D2EF G2FE|E6:|

